X: 138
M: 2/4
L: 1/16
K: D
zD | (D3E) F3 G | A4 A3 A | B4 e3 d |
{d}c4 B2 A2 | d4 c3 d | {c}B6 A2 | A6 ::\
zG | (F3E) F3 d | {G}F4 E3 D | (E3D) E3 F |

